dist/images/logo-abbott-color.svg

<svg width="120" height="30" viewBox="0 0 120 30" fill="none" xmlns="http://www.w3.org/2000/svg">
<path d="M4.93219 9.90042C2.20779 9.90042 0 12.1082 0 14.8318V24.7693C0 27.4945 2.20779 29.7023 4.93219 29.7023H32.1956C34.92 29.7023 37.1276 27.4945 37.1276 24.7693V4.93113C37.1276 2.20778 34.92 0 32.1956 0H0V4.95034H30.5782C31.4616 4.95034 32.177 5.66592 32.177 6.54914V23.1526C32.177 24.0351 31.4616 24.7522 30.5782 24.7522H6.54861C5.66645 24.7522 4.95035 24.0351 4.95035 23.1526V16.449C4.95035 15.5669 5.66592 14.8505 6.54861 14.8505H27.2264V9.90042H4.93219Z" fill="#0095D6"/>
<path d="M101.085 16.8432C101.085 20.5597 98.4848 22.6234 94.9334 22.6234C91.3753 22.6234 88.7797 20.5597 88.7797 16.8432C88.7797 13.1289 91.3753 11.0619 94.9334 11.0619C98.4848 11.0619 101.085 13.1289 101.085 16.8432ZM75.6868 22.2815H78.3628L79.0518 20.8357C79.8817 22.113 81.2192 22.6234 82.7203 22.6234C86.2995 22.6234 87.6325 19.9083 87.6325 16.8421C87.6325 13.784 86.2995 11.0619 82.7203 11.0619C81.6524 11.0619 80.5302 11.6884 79.6493 12.6638V6.88574H73.7335V8.74264H74.8303C75.5215 8.74264 75.6868 9.08723 75.6868 9.74346V22.2815ZM62.306 22.2815H64.982L65.671 20.8357C66.502 22.113 67.8395 22.6234 69.34 22.6234C72.9197 22.6234 74.2528 19.9083 74.2528 16.8421C74.2528 13.784 72.9197 11.0619 69.34 11.0619C68.2738 11.0619 67.1505 11.6884 66.2673 12.6638V6.88574H60.3527V8.74264H61.4494C62.1401 8.74264 62.306 9.08723 62.306 9.74346V22.2815ZM51.148 10.3403H51.1957L52.9098 15.3395H49.4493L51.148 10.3403ZM49.7178 6.88574L45.7365 18.4916C45.2528 19.9083 44.9243 20.2362 44.09 20.2362H43.2773V22.2815H50.287V20.2362H49.6013C48.954 20.2362 48.1163 20.1649 48.1163 19.7895C48.1163 19.4638 48.2128 19.1198 48.473 18.3107L48.7626 17.3806H53.6276L54.1263 19.0485C54.2217 19.3979 54.2462 19.6534 54.2462 19.891C54.2462 20.1433 53.6509 20.2362 52.9342 20.2362H52.2208V22.2815H60.923V20.2362H60.1131C59.2832 20.2362 58.9476 19.9083 58.4744 18.4916L54.4891 6.88574H49.7178ZM70.0357 16.8421C70.0357 19.2143 69.492 20.6288 68.1501 20.6288C66.816 20.6288 66.2673 19.2143 66.2673 16.8421C66.2673 14.4764 66.816 13.0619 68.1501 13.0619C69.492 13.0619 70.0357 14.4764 70.0357 16.8421ZM94.9334 12.9204C93.5033 12.9204 93.0023 14.1038 93.0023 16.8432C93.0023 19.5821 93.5033 20.7665 94.9334 20.7665C96.3618 20.7665 96.8605 19.5821 96.8605 16.8432C96.8605 14.1038 96.3618 12.9204 94.9334 12.9204ZM118.088 17.0317V18.8411C118.088 19.9083 117.851 20.5402 116.945 20.5402C116.397 20.5402 116.137 20.1422 116.137 19.6534V13.2693H119.064V11.4113H116.137V7.09746H113.772C113.578 9.02187 112.96 11.4113 110.576 11.4113H106.856V7.09746H104.498C104.306 9.02187 103.684 11.4113 101.303 11.4113V13.2693H102.899V19.0949C102.899 21.4638 104.258 22.6234 106.71 22.6234C109.578 22.6234 110.715 21.3731 110.715 19.0949V17.0317H108.815V18.8411C108.815 19.9083 108.574 20.5402 107.671 20.5402C107.117 20.5402 106.856 20.1422 106.856 19.6534V13.2693H112.181V19.0949C112.181 21.4638 113.534 22.6234 115.992 22.6234C118.851 22.6234 119.999 21.3731 119.999 19.0949V17.0317H118.088ZM83.4154 16.8421C83.4154 19.2143 82.8728 20.6288 81.5293 20.6288C80.1957 20.6288 79.6493 19.2143 79.6493 16.8421C79.6493 14.4764 80.1957 13.0619 81.5293 13.0619C82.8728 13.0619 83.4154 14.4764 83.4154 16.8421Z" fill="black"/>
</svg>

<svg width="120" height="30" viewBox="0 0 120 30" fill="none" xmlns="http://www.w3.org/2000/svg"><path d="M4.932 9.9A4.931 4.931 0 000 14.832v9.937a4.932 4.932 0 004.932 4.933h27.264a4.932 4.932 0 004.932-4.933V4.931A4.931 4.931 0 0032.196 0H0v4.95h30.578c.884 0 1.599.716 1.599 1.6v16.603a1.6 1.6 0 01-1.599 1.6H6.548a1.6 1.6 0 01-1.598-1.6v-6.704a1.6 1.6 0 011.599-1.599h20.677V9.9H4.932z" fill="#0095D6"/><path d="M101.085 16.843c0 3.717-2.6 5.78-6.152 5.78-3.558 0-6.153-2.063-6.153-5.78 0-3.714 2.595-5.781 6.153-5.781 3.552 0 6.152 2.067 6.152 5.781zm-25.398 5.439h2.676l.689-1.446c.83 1.277 2.167 1.787 3.668 1.787 3.58 0 4.912-2.715 4.912-5.78 0-3.059-1.333-5.781-4.912-5.781-1.068 0-2.19.626-3.07 1.602V6.886h-5.916v1.857h1.096c.692 0 .857.344.857 1v12.539zm-13.381 0h2.676l.689-1.446c.831 1.277 2.168 1.787 3.669 1.787 3.58 0 4.913-2.715 4.913-5.78 0-3.059-1.333-5.781-4.913-5.781-1.066 0-2.19.626-3.073 1.602V6.886h-5.914v1.857h1.096c.691 0 .857.344.857 1v12.539zM51.148 10.34h.048l1.714 5h-3.46l1.698-5zm-1.43-3.454l-3.982 11.606c-.483 1.416-.812 1.744-1.646 1.744h-.813v2.046h7.01v-2.046h-.686c-.647 0-1.485-.071-1.485-.447 0-.325.097-.67.357-1.478l.29-.93h4.865l.498 1.668c.096.349.12.604.12.842 0 .252-.595.345-1.312.345h-.713v2.046h8.702v-2.046h-.81c-.83 0-1.165-.328-1.639-1.744L54.49 6.886h-4.771zm20.318 9.956c0 2.372-.544 3.787-1.886 3.787-1.334 0-1.883-1.415-1.883-3.787 0-2.366.549-3.78 1.883-3.78 1.342 0 1.886 1.414 1.886 3.78zm24.897-3.922c-1.43 0-1.93 1.184-1.93 3.923 0 2.74.5 3.924 1.93 3.924 1.429 0 1.927-1.185 1.927-3.924 0-2.74-.498-3.923-1.927-3.923zm23.155 4.112v1.81c0 1.066-.237 1.698-1.143 1.698-.548 0-.808-.398-.808-.887V13.27h2.927v-1.858h-2.927V7.097h-2.365c-.194 1.925-.812 4.314-3.196 4.314h-3.72V7.097h-2.358c-.192 1.925-.814 4.314-3.195 4.314v1.858h1.596v5.826c0 2.369 1.359 3.528 3.811 3.528 2.868 0 4.005-1.25 4.005-3.528v-2.063h-1.9v1.81c0 1.066-.241 1.698-1.144 1.698-.554 0-.815-.398-.815-.887V13.27h5.325v5.826c0 2.369 1.353 3.528 3.811 3.528 2.859 0 4.007-1.25 4.007-3.528v-2.063h-1.911zm-34.673-.19c0 2.372-.542 3.787-1.886 3.787-1.333 0-1.88-1.415-1.88-3.787 0-2.366.547-3.78 1.88-3.78 1.344 0 1.886 1.414 1.886 3.78z" fill="#000"/></svg>
